packages/crayons-core/src/components/icon/icon-assets/icons/alert.svg

<?xml version="1.0" encoding="UTF-8"?>
<svg width="16px" height="16px" viewBox="0 0 16 16" version="1.1" xmlns="http://www.w3.org/2000/svg" xmlns:xlink="http://www.w3.org/1999/xlink">
    <!-- Generator: Sketch 52.6 (67491) - http://www.bohemiancoding.com/sketch -->
    <title>icon/alert</title>
    <desc>Created with Sketch.</desc>
    <g id="Icons-✅" stroke="none" stroke-width="1" fill="none" fill-rule="evenodd">
        <g id="Icons" transform="translate(-80.000000, -2916.000000)" fill="currentColor">
            <g id="icon/alert" transform="translate(80.000000, 2917.000000)">
                <g id="alert" transform="translate(0.000000, -1.000000)">
                    <path d="M15.57,10.61 C16.1338902,11.5866807 16.1345241,12.7898547 15.5716636,13.767129 C15.008803,14.7444034 13.9677728,15.3476316 12.84,15.35 L3.16,15.35 C2.03222716,15.3476316 0.991196968,14.7444034 0.428336413,13.767129 C-0.134524141,12.7898547 -0.133890153,11.5866807 0.43,10.61 L5.26,2.23 C5.82763463,1.25435578 6.87124373,0.654145539 8,0.654145539 C9.12875627,0.654145539 10.1723654,1.25435578 10.74,2.23 L15.57,10.61 Z M14.36,13.07 C14.6684757,12.5199003 14.6531488,11.8455173 14.32,11.31 L9.48,2.93 C9.16359444,2.40346932 8.5942858,2.08138782 7.98,2.08138782 C7.3657142,2.08138782 6.79640556,2.40346932 6.48,2.93 L1.64,11.31 C1.32597924,11.8538958 1.32557768,12.5239106 1.63894629,13.0681824 C1.9523149,13.6124542 2.53196384,13.9485006 3.16,13.95 L12.84,13.95 C13.4678405,13.9505666 14.0478737,13.6147579 14.36,13.07 Z M8,9.34 C7.80720558,9.34031504 7.62281674,9.26110008 7.49032826,9.12104083 C7.35783979,8.98098159 7.2889829,8.79247964 7.3,8.6 L7.3,5 C7.30000002,4.61340069 7.61340069,4.30000004 8,4.30000004 C8.38659931,4.30000004 8.69999998,4.61340069 8.7,5 L8.7,8.64 C8.7,9.02659932 8.38659932,9.34 8,9.34 Z M8,10.4 C8.27376861,10.3862942 8.54116144,10.4855689 8.73965595,10.6746112 C8.93815047,10.8636536 9.05034286,11.1258887 9.05,11.4 C9.04931752,11.9456217 8.61139379,12.3899814 8.06584012,12.3986237 C7.52028645,12.407266 7.06850749,11.9770003 7.05054295,11.431674 C7.03257842,10.8863477 7.45506036,10.4272815 8,10.4 Z" id="Combined-Shape"></path>
                </g>
            </g>
        </g>
    </g>
</svg>

<svg viewBox="0 0 16 16"><path d="M15.57 10.61a3.16 3.16 0 0 1-2.73 4.74H3.16a3.16 3.16 0 0 1-2.73-4.74l4.83-8.38a3.17 3.17 0 0 1 5.48 0l4.83 8.38zm-1.21 2.46a1.73 1.73 0 0 0-.04-1.76L9.48 2.93a1.75 1.75 0 0 0-3 0l-4.84 8.38a1.76 1.76 0 0 0 1.52 2.64h9.68a1.75 1.75 0 0 0 1.52-.88zM8 9.34a.7.7 0 0 1-.7-.74V5a.7.7 0 0 1 1.4 0v3.64a.7.7 0 0 1-.7.7zm0 1.06a1 1 0 1 1 .1 1.997A1 1 0 0 1 8 10.4z" fill="currentColor" fill-rule="evenodd"/></svg>
